!!!COM: Mozart
!!!OTL: 12 Variations on "Ah Vous dirais-je, Maman" for the Piano
!!!Variation: 1 b
**function	**harm	**kern	**kern
*	*	*clefF4	*clefG2
*	*	*k[]	*k[]
*M2/4	*M2/4	*M2/4	*M2/4
*C:	*C:	*C:	*C:
=33	=33	=33	=33
2D	2Ic	4e	16aaLL
.	.	.	16gg
.	.	.	16ff#
.	.	.	16ggJJ
.	.	4G	16ff#LL
.	.	.	16gg
.	.	.	16aa
.	.	.	16ggJJ
=34	=34	=34	=34
2D	2V7	4d	16ggLL
.	.	.	16ff
.	.	.	16ee
.	.	.	16ffJJ
.	.	4G	16eeLL
.	.	.	16ff
.	.	.	16gg
.	.	.	16ffJJ
=35	=35	=35	=35
2D	2Ic	4c	16ffLL
.	.	.	16ee
.	.	.	16dd#
.	.	.	16eeJJ
.	.	4G	16dd#LL
.	.	.	16ee
.	.	.	16ff
.	.	.	16eeJJ
=36	=36	=36	=36
2D	2V	4f	16eeLL
.	.	.	16dd
.	.	.	16cc#
.	.	.	16ddJJ
.	.	4G	16cc#LL
.	.	.	16dd
.	.	.	16ee
.	.	.	16ddJJ
=37	=37	=37	=37
2D	2Ic	2G 2e	16aaLL
.	.	.	16gg
.	.	.	16ff#
.	.	.	16ggJJ
.	.	.	16eeeLL
.	.	.	16ccc
.	.	.	16aa
.	.	.	16ggJJ
=38	=38	=38	=38
2D	2V7	2G 2d	16ggLL
.	.	.	16ff
.	.	.	16ee
.	.	.	16ffJJ
.	.	.	16dddLL
.	.	.	16bb
.	.	.	16gg
.	.	.	16ffJJ
=39	=39	=39	=39
2D	2Ic	4G 4c	16ffLL
.	.	.	16ee
.	.	.	16dd#
.	.	.	16eeJJ
.	.	8.r	16cccLL
.	.	.	16gg
.	.	.	16ff
.	.	16c	16eeJJ
=40	=40	=40	=40
*	*	*^	*
4D	4Cc	(8.eL	2G	(8.ggL
.	.	16cJk	.	16eeJk
4D	4V	4B)	.	4dd)
*	*	*v	*v	*
*-	*-	*-	*-
